X:1
T:Má hvezda
T:Má hvězda
T:Bedřich Peška (1820-1904)
T:Bedřich Smetana (1824-1884)
C:Bedrich Smetana (1824-1884)
%%score [ 1 2 3 ]
L:1/8
Q:1/4=60
M:4/4
K:Bb
V:1 treble nm="S1"
V:2 treble nm="S2"
V:3 treble nm="A" snm="A"
V:1
"^Andante"!p!!>(! d d!>)! c c B2 F2 |!<(! G A B c!<)! A2 z2 |!<(! d d c c!<)! B2 A2 | %3
w: 1.Když se ve- čer stmi- vá|dři- ve než jdu spát,|na láv- ce se- dá- vám|
w: 2.Ja- ko se u- smí- vá|na mne ma- ti- čka,|li- bez- ně se di- vá|
!<(! G A!<)!!>(! B G F2!>)! z2 |"^poco cresc." F G A B c>d c2 |!<(! A B c d e>f!<)! e2 | %6
w: ve- dle na- šich vrat.|Hle- dim po- ne- bi- * čku,|hle- dám svou hvě- zdi- * čku,|
w: na mne hvě- zdi- čka|a mně ti- še pra- * vi|je- jí hlas la- ska- * vý:|
 d2"^cresc." d2 d e f ^f |!f!!<(! g8!<)! |!>(! f2 d2!>)!!<(! d d c c!<)! |!f!!>(! f4 e4!>)! | %10
w: kde jsi, kde jsi, hvĕ- zdo|má?|Kde jsi, kde jsi, hvĕ- zdo|má, _|
w: já jsem, já jsem hvě- zda|tvá,|já jsem, já jsem hvě- zda|tvá, _|
!pp! d2"^poco rall." B2 d d c c | B6 z2 |] %12
w: kde jsi, kde jsi, hvĕ- zdo|má?|
w: já jsem, já jsem hvě- zda|tvá.|
V:2
!p!!>(! B B!>)! A A F2 D2 |!<(! E E F G!<)! F2 z2 |!<(! B B A A!<)! F2 F2 | %3
w: 1.Když se ve- čer stmi- vá|dři- ve než jdu spát,|na láv- ce se- dá- vám|
w: 2.Ja- ko se u- smí- vá|na mne ma- ti- čka,|li- bez- ně se di- vá|
!<(! F F!<)!!>(! F =E F2!>)! z2 |"^poco cresc." F F F G A>B A2 |!<(! F G A B c>d!<)! c2 | %6
w: ve- dle na- šich vrat.|Hle- dim po- ne- bi- * čku,|hle- dám svou hvě- zdi- * čku,|
w: na mne hvě- zdi- čka|a mně ti- še pra- * vi|je- jí hlas la- ska- * vý:|
 B2"^cresc." B2 B c B B |!f!!<(! B8!<)! |!>(! B2 B2!>)!!<(! B B B A!<)! |!f!!>(! _A4 G4!>)! | %10
w: kde jsi, kde jsi, hvĕ- zdo|má?|Kde jsi, kde jsi, hvĕ- zdo|má, _|
w: já jsem, já jsem hvě- zda|tvá,|já jsem, já jsem hvě- zda|tvá, _|
!pp! B2 F2 B B A A | F6 z2 |] %12
w: kde jsi, kde jsi, hvĕ- zdo|má?|
w: já jsem, já jsem hvě- zda|tvá.|
V:3
!p!!>(! F2!>)! E2 D C D B, |!<(! E C D =E!<)! F C F2 |!<(! B, D F _E!<)! D2 C2 | %3
w: 1.Když se ve- čer stmi- vá|dři- ve, dři- ve než jdu spát,|na láv- ce se- dá- vám|
w: 2.Ja- ko se u- smí- vá|na mne, na mne ma- ti- čka,|li- bez- ně se di- vá|
!<(! D ^C!<)!!>(! D =C/B,/ A, C!>)! F2 |"^poco cresc." F2 F2 F F F F |!<(! F2 F2 F F!<)! G A | %6
w: ve- dle, ve- dle _ na- šich vrat.|Hle- dim po- ne- bi- čku,|hle- dám svou hvě- zdi- čku,|
w: na mne, na mne _ hvě- zdi- čka|a mně ti- še pra- vi|je- jí hlas la- ska- vý:|
 BA"^cresc." _A2 A2 D2 |!f!!<(! E2 B,2 E4!<)! |!>(! D2 F^F!>)!!<(! G =E =F _E!<)! | %9
w: kde _ jsi, kde jsi,|hvĕ- zdo má?|Kde jsi, _ kde jsi, hvĕ- zdo|
w: já _ jsem, já jsem,|hvě- zda tvá,|já jsem, _ já jsem hvě- zda|
!f!!>(! D4 E4!>)! |!pp! F2 D2 F F E E | D6 z2 |] %12
w: má, _|kde jsi, kde jsi, hvĕ- zdo|má?|
w: tvá, _|já jsem, já jsem hvě- zda|tvá.|

